X: 965
T:Favourite Gigg
M:2/4
L:1/16
S:Armitt MS
N:The time signature is given as 3/4, and the key signature is shown as a
N:sharp sign in the top space.  The the second bar of the B music there
N:is a sharp on the top line (F) at the begining of the bar. cont/
N:Duration of last three notes unclear but c/f last three notes of A
N:music
K:G major
G2ge d2B2A2G2|FDAD BDAD|G2ge dBAG|DGFA BGG2:||:gedc BcdB|Aaa^g aeef|gedc
 BcdB|dgfa bgg2:||
